X: 35734
T: Säkkijärven Polkka
R: polka
M: 2/4
K: Eminor
|:^d2|"Em"e2B2 A2G2|"Am"((3GAG) "B7"F2 F2F2|BA2A G2A2|"Em"((3FGF) E2 E2E2|
"Em"e2 ((3BcB) A2G2|"Am"((3GAG) F2 "B7"F2F2|B2B^A c2^d2|"Em"e2 e2e2:|
|:B2|"Em"B2e2 e^d(ef)|"B7"e2^d2 d2d2|B2f2 fe(fg)|"Em"((3fgf)e2 e2e2|
"Em"b2e2 e^d(ef)|"B7"((3efe)^d2 d2d2|b2((3aba) g2f2|"Em"e2e2 e2:|
(EG)|"Em"B2BG E2(EG)|B2BG E2(EG)|B2B2 c2B2|"Am"(AG)(AG) "B7"F2FG|
"B7"A2(AG) F2FG|A2(AG) F2FG|A2A2 B2A2|(GA)GF "Em"E2(EG)|
"Em" B2BA E2(EG)|B2BG E2(EG)|B2B2 e2d2|"Am"(cd)(cB) A2A2|
"Am"c2(cB) A2c2|"Em"B2BG E2(EG)|"B7"B2B^A c2^d2|"Em"e2e2 e2z2||
|:"Em"E2(EF) GF(G_A)|"Am"A2AB (cB)A2|"B7"B2F2 BAGF|"Em"E2(EF) GFE2|
"Em"E2(EG) GF(G_A)|"Am"A2AB cBA2|"B7"B2F2 BAGF|"Em"E2E2 E2E2:|

